icons/core/comment.svg

<svg width="32" height="32" viewBox="0 0 32 32" xmlns="http://www.w3.org/2000/svg"><path fill-rule="evenodd" clip-rule="evenodd" d="M2 6C2 4.89543 2.89543 4 4 4H28C29.1046 4 30 4.89543 30 6V22C30 23.1046 29.1046 24 28 24H16.0809L11.4142 28.6667C10.1543 29.9266 8 29.0343 8 27.2525V24H4C2.89543 24 2 23.1046 2 22V6ZM28 6L4 6V22H9H10V23V27.2525L14.6667 22.5858C15.0417 22.2107 15.5504 22 16.0809 22H28V6Z"/></svg>

<svg viewBox="0 0 32 32" xmlns="http://www.w3.org/2000/svg"><path fill-rule="evenodd" d="M2 6a2 2 0 012-2h24a2 2 0 012 2v16a2 2 0 01-2 2H16.08l-4.666 4.667C10.154 29.927 8 29.034 8 27.252V24H4a2 2 0 01-2-2V6zm26 0H4v16h6v5.253l4.667-4.667A2 2 0 0116.08 22H28V6z"/></svg>
